X:1
T:Dir, Dir, Jehovah, 9.10.9.10.10.10
T:Johannes Anastasius Freylinghausen, 1704
T:Dir, Dir, Jehovah, 9.10.9.10.10.10
T:Public Domain
C:Johannes Anastasius Freylinghausen, 1704
Z:Public Domain
%%score ( 1 2 ) ( 3 4 )
L:1/8
M:2/2
K:C
V:1 treble 
V:2 treble 
V:3 bass 
V:4 bass 
V:1
 [EG]4 | [Ec]4 G4 | [FA]4 [FA]4 | G2 A2 G2 F2 | E2 D2 C4- | =C4 [B,D]4 | [CE]4 [D^F]4 | %7
 [DG]2 [^FA]2 [GB]2 [Gc]2 | [GB]4 [^FA]4 | [DG]4 [EG]4 | [Ec]4 G4 | [FA]4 [FA]4 | G2 A2 G2 F2 | %13
 E2 D2 C4- | C4 [B,D]4 | [CE]4 [C^F]4 | [DG]2 [^FA]2 [GB]2 [Gc]2 | [GB]4 [^FA]4 | [DG]4 [DG]4 | %19
 [Gc]4 [Gd]4 | [Ge]4 [Ec]4 | [Af]2 [Gd]2 [Ge]2 [Gc]2 | [Gd]4 [Ge]4 | [Gd]2 [^Fc]2 [GB]2 [=FA]2 | %24
 [EG]4 [Ec]4 | [Fc]4 [DB]4 | [Ec]4 |] %27
V:2
 x4 | x8 | x8 | D4 D4 | C4 C4 | =C4 x4 | x8 | x8 | x8 | x8 | x8 | x8 | D4 D4 | C4 x4 | x8 | x8 | %16
 x8 | x8 | x8 | x8 | x8 | x8 | x8 | x8 | x8 | x8 | x4 |] %27
V:3
 [C,C]4 | [C,G,]4 [E,C]4 | [F,C]4 [D,D]4 | [G,B,]4 [B,,G,]4 | G,2 F,2 [C,E,]4- | [C,E,]4 [G,,G,]4 | %6
 [C,G,]4 [A,,A,]4 | [B,,G,]2 [A,,C]2 [G,,D]2 [C,E]2 | [D,D]4 [D,C]4 | [G,,B,]4 [C,C]4 | %10
 [C,G,]4 [E,C]4 | [F,C]4 [D,D]4 | [G,B,]4 [B,,G,]4 | G,2 F,2 [C,E,]4- | [C,E,]4 [G,,G,]4 | %15
 [C,G,]4 [A,,A,]4 | [B,,G,]2 [A,,C]2 [G,,D]2 [C,E]2 | [D,D]4 [D,C]4 | [G,,B,]4 G,2 F,2 | %19
 [E,C]4 [G,B,]4 | [C,C]4 [A,C]4 | [D,D]2 [G,B,]2 [C,C]2 [E,C]2 | [G,B,]4 [C,C]4 | %23
 [G,B,]2 [A,C]2 [E,E]2 [F,C]2 | [C,C]4 [A,C]4 | [F,A,]4 G,4 | [C,G,]4 |] %27
V:4
 x4 | x8 | x8 | x8 | C,4 x4 | x8 | x8 | x8 | x8 | x8 | x8 | x8 | x8 | C,4 x4 | x8 | x8 | x8 | x8 | %18
 x4 B,4 | x8 | x8 | x8 | x8 | x8 | x8 | x4 G,4 | x4 |] %27

